X: 6
T: Coen's Memories
R: reel
M: 4/4
L: 1/8
K: Edor
edBA BEFA|B2eB dBAF|DEFD E2GB|Adfd edBA|BE~E2 DEFA|B2eB dBAF|DEFA dBAF|1 DEFD E2EF:|2 DEFD E2EA|||:Be~e2 fedB|eBfe dBAF|~A3B d2fd|edef d2BA|Be~e2 fedB|e2fe dBAF|DEFA dBAF|1 DEFD E2EA:|2 DEFD E2EF||


Tune 558	Setting 13524

